src/places/16/folder-owncloud.svg

<svg width="16" height="16" version="1.1" viewBox="0 0 16 16" xmlns="http://www.w3.org/2000/svg">
 <defs>
  <style id="current-color-scheme" type="text/css">.ColorScheme-Text { color:#363636; } .ColorScheme-Text { color:#363636; }</style>
 </defs>
 <path d="m6.5 3a2.5 2.5 0 0 0-2.4609 2.0605 2.5 2.5 0 0 0-0.53906-0.060547 2.5 2.5 0 0 0-2.5 2.5 2.5 2.5 0 0 0 0.16406 0.88867 2.5 2.5 0 0 0-1.1641 2.1113 2.5 2.5 0 0 0 2.5 2.5 2.5 2.5 0 0 0 1.9414-0.92578 4 4 0 0 0 2.5586 0.92578 4 4 0 0 0 2.7109-1.0605 3 3 0 0 0 2.2891 1.0605 3 3 0 0 0 3-3 3 3 0 0 0-2.0859-2.8555 2.5 2.5 0 0 0 0.085938-0.64453 2.5 2.5 0 0 0-2.5-2.5 2.5 2.5 0 0 0-1.6582 0.62891 2.5 2.5 0 0 0-2.3418-1.6289z" style="fill:currentColor" class="ColorScheme-Text"/>
</svg>

<svg xmlns="http://www.w3.org/2000/svg" width="16" height="16">
    <path d="M6.5 3a2.5 2.5 0 0 0-2.46 2.06A2.5 2.5 0 0 0 3.5 5 2.5 2.5 0 0 0 1 7.5a2.5 2.5 0 0 0 .164.889A2.5 2.5 0 0 0 0 10.499 2.5 2.5 0 0 0 2.5 13a2.5 2.5 0 0 0 1.941-.925A4 4 0 0 0 7 13a4 4 0 0 0 2.71-1.06A3 3 0 0 0 12 13a3 3 0 0 0 3-3 3 3 0 0 0-2.086-2.856A2.5 2.5 0 0 0 13 6.5 2.5 2.5 0 0 0 10.5 4a2.5 2.5 0 0 0-1.658.629A2.5 2.5 0 0 0 6.5 2.999z" style="fill:currentColor;color:#050505;opacity:.7"/>
</svg>
